X: 29730
T: Nyan Cat
R: reel
M: 4/4
K: Gmajor
(B,CD2) G2(B,C|DEGB AFG2)|(B,CD2) G2B,C|DEGA Bc^cd|
|:d2e2 BB2A|(_BAG2) G2A2|_B2BA GA=Bd|eBdA BGAG|
B2d2 eBdA|BGA_B AG(GA|_B2)GA =BdAB|1 AGA2 G2A2:|2 AGA2 G2 G2||
|:G2(DE G2)(DE|GABA cBcd)|G2G2 DEGD|cBAG CB,CD|
G2(DE G2)(DE|GGAB GDED)|G2GF GDEG|1 cBcd B2A2:|2 cBcd G2G2||

